X:1059
T:Little Peggy's Love.
M:C
L:1/8
Q:1/4=120
I: :: ::
Z:Jack Campin * www.campin.me.uk * 2009
K:G
G>AB>d e>de>g|d>eg>b [f2a2]    [f2a2] |\
G>AB>d e>de>g|de`ga  [Bg]>[Bg] [B2g2]:|
d>Bg>e d>BA>G|E>DG>B  A>A       A2    |\
d>Bg>e d>BA>G|D>EG>A  G>G       G2    |
d>Bg>e d>cB>G|E>DG>B  A>A       A>c   |\
B>dG>B c>de>f|g>ed>B  G>G       G2   :|

